icons/svg/subway/subway_italy_catania.svg

<?xml version="1.0" encoding="UTF-8" standalone="no"?>
<svg
   xmlns:dc="http://purl.org/dc/elements/1.1/"
   xmlns:cc="http://creativecommons.org/ns#"
   xmlns:rdf="http://www.w3.org/1999/02/22-rdf-syntax-ns#"
   xmlns:svg="http://www.w3.org/2000/svg"
   xmlns="http://www.w3.org/2000/svg"
   xmlns:sodipodi="http://sodipodi.sourceforge.net/DTD/sodipodi-0.dtd"
   xmlns:inkscape="http://www.inkscape.org/namespaces/inkscape"
   width="16"
   height="16"
   id="svg2"
   version="1.1"
   inkscape:version="0.91 r"
   sodipodi:docname="subway_catania.svg">
  <defs
     id="defs13">
    <linearGradient
       gradientUnits="userSpaceOnUse"
       id="l1-2"
       y2="1.2385538"
       x2="87.260849"
       y1="121.69753"
       x1="87.101639"
       gradientTransform="matrix(0.08400469,0,0,0.08400469,0.8422306,2.0814238)">
      <stop
         id="stop5725"
         offset="0"
         style="stop-color:#e92203;stop-opacity:1" />
      <stop
         id="stop5727"
         offset="1"
         style="stop-color:#ff0000;stop-opacity:0.64628822" />
    </linearGradient>
    <linearGradient
       gradientTransform="matrix(0.08596979,0,0,0.08596979,0.67480439,1.9432845)"
       x1="87.101639"
       y1="121.69753"
       x2="87.260849"
       y2="1.2385538"
       id="l1"
       gradientUnits="userSpaceOnUse">
      <stop
         style="stop-color:#000e28;stop-opacity:1"
         offset="0"
         id="stop5" />
      <stop
         style="stop-color:#008cb9;stop-opacity:1"
         offset="1"
         id="stop7" />
    </linearGradient>
    <linearGradient
       gradientTransform="matrix(0.08400469,0,0,0.08400469,0.8422306,2.0814238)"
       x1="87.101639"
       y1="121.69753"
       x2="87.260849"
       y2="1.2385538"
       id="linearGradient5729"
       gradientUnits="userSpaceOnUse">
      <stop
         style="stop-color:#e92203;stop-opacity:1"
         offset="0"
         id="stop5-8" />
      <stop
         style="stop-color:#ff0000;stop-opacity:0.64628822"
         offset="1"
         id="stop7-4" />
    </linearGradient>
  </defs>
  <sodipodi:namedview
     pagecolor="#ffffff"
     bordercolor="#666666"
     borderopacity="1"
     objecttolerance="10"
     gridtolerance="10"
     guidetolerance="10"
     inkscape:pageopacity="0"
     inkscape:pageshadow="2"
     inkscape:window-width="1920"
     inkscape:window-height="1004"
     id="namedview11"
     showgrid="true"
     inkscape:zoom="45.254834"
     inkscape:cx="10.229682"
     inkscape:cy="7.9007656"
     inkscape:window-x="1680"
     inkscape:window-y="0"
     inkscape:window-maximized="1"
     inkscape:current-layer="svg2"
     showguides="false"
     inkscape:snap-global="false">
    <sodipodi:guide
       position="0,0"
       orientation="0,580"
       id="guide2989" />
    <sodipodi:guide
       position="580,0"
       orientation="-580,0"
       id="guide2991" />
    <sodipodi:guide
       position="580,580"
       orientation="0,-580"
       id="guide2993" />
    <sodipodi:guide
       position="0,580"
       orientation="580,0"
       id="guide2995" />
    <sodipodi:guide
       position="0,0"
       orientation="0,580"
       id="guide2997" />
    <sodipodi:guide
       position="580,0"
       orientation="-580,0"
       id="guide2999" />
    <sodipodi:guide
       position="580,580"
       orientation="0,-580"
       id="guide3001" />
    <sodipodi:guide
       position="0,580"
       orientation="580,0"
       id="guide3003" />
    <inkscape:grid
       type="xygrid"
       id="grid3013"
       empspacing="5"
       visible="true"
       enabled="true"
       snapvisiblegridlinesonly="true" />
  </sodipodi:namedview>
  <metadata
     id="metadata2975">image/svg+xmlen<rdf:RDF>
  <cc:Work
     rdf:about="">
    <dc:format>image/svg+xml</dc:format>
    <dc:type
       rdf:resource="http://purl.org/dc/dcmitype/StillImage" />
    <dc:title />
  </cc:Work>
</rdf:RDF>
</metadata>
  <path
     sodipodi:type="inkscape:offset"
     inkscape:radius="0.48913983"
     inkscape:original="M 3.4550781 4.3710938 L 3.4550781 11.628906 L 12.544922 11.628906 L 12.544922 4.3710938 L 3.4550781 4.3710938 z "
     style="opacity:1;fill:#fefefe;fill-opacity:1;fill-rule:evenodd;stroke:#ffffff;stroke-width:0;stroke-linecap:butt;stroke-linejoin:miter;stroke-miterlimit:4;stroke-dasharray:none;stroke-dashoffset:0;stroke-opacity:1"
     id="path4204"
     d="M 3.4550781,3.8828125 A 0.48918874,0.48918874 0 0 0 2.9667969,4.3710938 l 0,7.2578122 a 0.48918874,0.48918874 0 0 0 0.4882812,0.488282 l 9.0898439,0 a 0.48918874,0.48918874 0 0 0 0.488281,-0.488282 l 0,-7.2578122 A 0.48918874,0.48918874 0 0 0 12.544922,3.8828125 l -9.0898439,0 z" />
  <g
     transform="matrix(0.0771056,0,0,0.0771056,4.3889138,4.3889138)"
     id="g11" />
  <g
     transform="matrix(0.0771056,0,0,0.0771056,4.3889138,4.3889138)"
     id="g13" />
  <g
     transform="matrix(0.0771056,0,0,0.0771056,4.3889138,4.3889138)"
     id="g15" />
  <g
     transform="matrix(0.0771056,0,0,0.0771056,4.3889138,4.3889138)"
     id="g17" />
  <g
     transform="matrix(0.0771056,0,0,0.0771056,4.3889138,4.3889138)"
     id="g19" />
  <g
     transform="matrix(0.0771056,0,0,0.0771056,4.3889138,4.3889138)"
     id="g21" />
  <g
     transform="matrix(0.0771056,0,0,0.0771056,4.3889138,4.3889138)"
     id="g23" />
  <g
     transform="matrix(0.0771056,0,0,0.0771056,4.3889138,4.3889138)"
     id="g25" />
  <g
     transform="matrix(0.0771056,0,0,0.0771056,4.3889138,4.3889138)"
     id="g27" />
  <g
     transform="matrix(0.0771056,0,0,0.0771056,4.3889138,4.3889138)"
     id="g29" />
  <g
     transform="matrix(0.0771056,0,0,0.0771056,4.3889138,4.3889138)"
     id="g31" />
  <g
     transform="matrix(0.0771056,0,0,0.0771056,4.3889138,4.3889138)"
     id="g33" />
  <g
     transform="matrix(0.0771056,0,0,0.0771056,4.3889138,4.3889138)"
     id="g35" />
  <g
     transform="matrix(0.0771056,0,0,0.0771056,4.3889138,4.3889138)"
     id="g37" />
  <g
     transform="matrix(0.0771056,0,0,0.0771056,4.3889138,4.3889138)"
     id="g39" />
  <rect
     style="fill:#e7271e;fill-opacity:1;fill-rule:evenodd;stroke:#ffffff;stroke-width:0;stroke-linecap:butt;stroke-linejoin:miter;stroke-miterlimit:4;stroke-dasharray:none;stroke-dashoffset:0;stroke-opacity:1"
     id="rect2994-3"
     width="9.0914011"
     height="7.2571878"
     x="3.4542997"
     y="4.3714061" />
  <path
     style="fill:#fefefe;fill-opacity:1;stroke:#ffffff;stroke-width:0;stroke-linecap:butt;stroke-linejoin:miter;stroke-miterlimit:4;stroke-dasharray:none;stroke-opacity:1"
     d="m 11.871292,5.1350258 0,5.6830412 -1.760454,0 0,-2.7424533 -1.4252854,2.7423713 -1.0193837,0 -0.5395469,-2.9112281 -0.8842999,2.9112281 -1.8522001,0 1.6518118,-4.8365557 2.3192767,0 0.3170376,1.7103186 1.3286979,-2.556773 z"
     id="path3865-6"
     inkscape:connector-curvature="0" />
  <path
     style="fill:#fefefe;fill-opacity:1;stroke:#ffffff;stroke-width:0;stroke-linecap:butt;stroke-linejoin:miter;stroke-miterlimit:4;stroke-dasharray:none;stroke-opacity:1"
     d="m 8.3294047,5.810403 -0.125206,-0.6754569 -1.8734078,0 -0.2306049,0.675355 z"
     id="path3867-5"
     inkscape:connector-curvature="0" />
  <path
     style="fill:#fefefe;fill-opacity:1;stroke:#ffffff;stroke-width:0;stroke-linecap:butt;stroke-linejoin:miter;stroke-miterlimit:4;stroke-dasharray:none;stroke-opacity:1"
     d="m 4.4187077,5.1285199 0.5851048,2.875e-4 -0.1192737,0.2298834 -0.3472319,0 -0.5160403,0.991543 -0.2377016,0 z"
     id="path4162-3"
     inkscape:connector-curvature="0" />
  <path
     style="fill:#fefefe;fill-opacity:1;stroke:#ffffff;stroke-width:0;stroke-linecap:butt;stroke-linejoin:miter;stroke-miterlimit:4;stroke-dasharray:none;stroke-opacity:1"
     d="m 3.6571462,5.9813404 0.2303619,0 0.089036,-0.1708354 -0.319999,0 z"
     id="path4164-8"
     inkscape:connector-curvature="0" />
  <path
     style="fill:#fefefe;fill-opacity:1;stroke:#ffffff;stroke-width:0;stroke-linecap:butt;stroke-linejoin:miter;stroke-miterlimit:4;stroke-dasharray:none;stroke-opacity:1"
     d="m 6.100186,5.8103011 -0.058253,0.1711282 -1.7403341,0 0.089094,-0.1710564 z"
     id="path4166-9"
     inkscape:connector-curvature="0" />
  <path
     style="fill:#fefefe;fill-opacity:1;stroke:#ffffff;stroke-width:0;stroke-linecap:butt;stroke-linejoin:miter;stroke-miterlimit:4;stroke-dasharray:none;stroke-opacity:1"
     d="m 4.7701741,5.7471257 0.4072053,0 0.082019,-0.1571059 -0.2492328,0 0.1579723,-0.3038163 0.2489441,0 0.081856,-0.1575595 -0.4073307,0 z"
     id="path4168-3"
     inkscape:connector-curvature="0" />
  <path
     style="fill:#fefefe;fill-opacity:1;stroke:#ffffff;stroke-width:0;stroke-linecap:butt;stroke-linejoin:miter;stroke-miterlimit:4;stroke-dasharray:none;stroke-opacity:1"
     d="m 5.2654626,5.7474146 0.4495296,0 0.081684,-0.1576614 -0.2912225,0 0.049437,-0.094754 0.1886911,0 0.058323,-0.1119037 -0.1890177,0 0.050236,-0.097208 0.291412,0 0.081886,-0.1570379 -0.4495243,0 z"
     id="path4213-0"
     inkscape:connector-curvature="0" />
</svg>

<svg width="16" height="16" viewBox="0 0 16 16" fill="none" xmlns="http://www.w3.org/2000/svg">
<path fill-rule="evenodd" clip-rule="evenodd" d="M3.45508 3.88281C3.32565 3.88305 3.20159 3.93457 3.11008 4.02609C3.01856 4.11761 2.96704 4.24167 2.9668 4.37109V11.6289C2.96704 11.7583 3.01856 11.8824 3.11008 11.9739C3.20159 12.0654 3.32565 12.1169 3.45508 12.1172H12.5449C12.6743 12.1169 12.7984 12.0654 12.8899 11.9739C12.9814 11.8824 13.033 11.7583 13.0332 11.6289V4.37109C13.033 4.24167 12.9814 4.11761 12.8899 4.02609C12.7984 3.93457 12.6743 3.88305 12.5449 3.88281H3.45508V3.88281Z" fill="#FEFEFE"/>
<path d="M12.5457 4.3714H3.45428V11.6286H12.5457V4.3714Z" fill="#E7271E"/>
<path d="M11.8713 5.13503V10.8181H10.1109V8.07562L8.68557 10.818H7.66618L7.12664 7.90676L6.24234 10.818H4.39014L6.04195 5.98143H8.36123L8.67826 7.69175L10.007 5.13498L11.8713 5.13503Z" fill="#FEFEFE"/>
<path d="M8.32938 5.81041L8.20417 5.13495H6.33076L6.10016 5.8103L8.32938 5.81041Z" fill="#FEFEFE"/>
<path d="M4.41871 5.12851L5.00382 5.1288L4.88454 5.35868H4.53731L4.02127 6.35022H3.78357L4.41871 5.12851Z" fill="#FEFEFE"/>
<path d="M3.65716 5.98135H3.88752L3.97655 5.81052H3.65656L3.65716 5.98135Z" fill="#FEFEFE"/>
<path d="M6.10016 5.8103L6.04191 5.98143H4.30157L4.39067 5.81037L6.10016 5.8103Z" fill="#FEFEFE"/>
<path d="M4.7702 5.74711H5.17741L5.25943 5.59001H5.01019L5.16817 5.28619H5.41711L5.49897 5.12863H5.09164L4.7702 5.74711Z" fill="#FEFEFE"/>
<path d="M5.26544 5.74741H5.71497L5.79666 5.58975H5.50543L5.55487 5.495H5.74356L5.80188 5.38309H5.61287L5.6631 5.28588H5.95451L6.0364 5.12885H5.58688L5.26544 5.74741Z" fill="#FEFEFE"/>
</svg>
